dist/svgs/core-ui-icons/brand/cib-twilio.svg

<svg xmlns="http://www.w3.org/2000/svg" viewBox="0 0 32 32"><path d="M16 0C7.177-.01.01 7.135 0 15.964V16c0 8.854 7.146 16 16 16s16-7.146 16-16S24.854 0 16 0zm0 27.734c-6.464.021-11.714-5.203-11.734-11.667v-.068C4.245 9.535 9.469 4.285 15.933 4.265h.068c6.464-.021 11.714 5.203 11.734 11.667V16c.021 6.464-5.203 11.714-11.667 11.734zm7.255-15.682a3.325 3.325 0 01-3.307 3.307 3.324 3.324 0 01-3.307-3.307c0-1.813 1.495-3.307 3.307-3.307s3.307 1.495 3.307 3.307zm0 7.896a3.325 3.325 0 01-3.307 3.307 3.325 3.325 0 01-3.307-3.307c0-1.813 1.495-3.307 3.307-3.307s3.307 1.495 3.307 3.307zm-7.896 0c0 1.813-1.49 3.307-3.302 3.307a3.321 3.321 0 01-3.307-3.307 3.322 3.322 0 013.307-3.307c1.807 0 3.302 1.495 3.302 3.307zm0-7.896c0 1.813-1.49 3.307-3.302 3.307a3.321 3.321 0 01-3.307-3.307 3.322 3.322 0 013.307-3.307c1.807 0 3.302 1.495 3.302 3.307z"/></svg>

<svg xmlns="http://www.w3.org/2000/svg" width="32" height="32" viewBox="0 0 32 32">
  <path d="M16 0c-8.823-0.010-15.99 7.135-16 15.964v0.036c0 8.854 7.146 16 16 16s16-7.146 16-16c0-8.854-7.146-16-16-16zM16 27.734c-6.464 0.021-11.714-5.203-11.734-11.667v-0.068c-0.021-6.464 5.203-11.714 11.667-11.734h0.068c6.464-0.021 11.714 5.203 11.734 11.667v0.068c0.021 6.464-5.203 11.714-11.667 11.734zM23.255 12.052c0 1.813-1.495 3.307-3.307 3.307-1.823-0.010-3.297-1.484-3.307-3.307 0-1.813 1.495-3.307 3.307-3.307s3.307 1.495 3.307 3.307zM23.255 19.948c0 1.813-1.495 3.307-3.307 3.307-1.823-0.010-3.302-1.49-3.307-3.307 0-1.813 1.495-3.307 3.307-3.307s3.307 1.495 3.307 3.307zM15.359 19.948c0 1.813-1.49 3.307-3.302 3.307-1.823-0.010-3.302-1.484-3.307-3.307 0-1.813 1.49-3.307 3.307-3.307 1.807 0 3.302 1.495 3.302 3.307zM15.359 12.052c0 1.813-1.49 3.307-3.302 3.307-1.823-0.010-3.302-1.484-3.307-3.307 0-1.813 1.49-3.307 3.307-3.307 1.807 0 3.302 1.495 3.302 3.307z"/>
</svg>
